build/images/page-5/token-sale-bg-1.svg

<svg width="209" height="70" viewBox="0 0 209 70" fill="none" xmlns="http://www.w3.org/2000/svg"><g clip-path="url(#clip0)" stroke="#00A99E" stroke-width="2" stroke-miterlimit="10" stroke-linecap="round" stroke-linejoin="round"><path d="M102.7 12.14v54.88m-.4-33.42c9.002 0 16.3-7.298 16.3-16.3S111.302 1 102.3 1 86 8.298 86 17.3s7.298 16.3 16.3 16.3zm31.53 8.25v25.12m-.19-13.29c5.782 0 10.47-4.688 10.47-10.47 0-5.782-4.688-10.47-10.47-10.47-5.782 0-10.47 4.688-10.47 10.47 0 5.782 4.688 10.47 10.47 10.47z"/></g><path d="M83.438 66.218V51.432M70.009 65.9v-9.136M77 66.218v-7.393m-63.69-1.289v8.177m8.2-5.293v5.293" stroke="#00A79E" stroke-width="2.035" stroke-miterlimit="10" stroke-linecap="round" stroke-linejoin="round"/><g clip-path="url(#clip1)"><path opacity=".25" d="M169.303 67.774s25.166-5.409 15.331-50.864c0 0-27.518 16.354-15.331 50.864z" fill="#00A99E"/><path d="M170.248 65.778s20.297 1.79 25.303-34.397c-.009.005-25.041 5.837-25.303 34.397zm.858-.968c.651-.975 20.217-28.477 20.217-28.477m-4.198.819l-.288 5.492m3.43.237l-5.216 2.248m1.939 2.528l-5.216 2.248m1.94 2.528l-5.221 2.239m5.06-12.618l-.297 5.496m-2.819-.958l-.297 5.497" stroke="#00A99E" stroke-width="2" stroke-miterlimit="10" stroke-linecap="round" stroke-linejoin="round"/></g><g clip-path="url(#clip2)"><path opacity=".25" d="M50.404 68.016s-13.837-2.974-8.43-27.966c0 0 15.13 8.992 8.43 27.966z" fill="#00A99E"/><path d="M49.884 66.919s-11.16.983-13.912-18.912c.005.002 13.768 3.21 13.912 18.912zm-.471-.532c-.359-.537-11.116-15.658-11.116-15.658m2.309.451l.158 3.02m-1.887.13l2.868 1.235m-1.066 1.391l2.868 1.235m-1.067 1.391l2.87 1.23m-2.781-6.937l.163 3.022m1.549-.527l.164 3.022" stroke="#00A99E" stroke-width="2" stroke-miterlimit="10" stroke-linecap="round" stroke-linejoin="round"/></g><path d="M2 67h205" stroke="#00A79E" stroke-width="2.035" stroke-miterlimit="10" stroke-linecap="round" stroke-linejoin="round"/><defs><clipPath id="clip0"><path fill="#fff" transform="translate(85)" d="M0 0h60.11v68.02H0z"/></clipPath><clipPath id="clip1"><path fill="#fff" transform="rotate(-26.639 146.285 -304.372)" d="M0 0h40.77v40.08H0z"/></clipPath><clipPath id="clip2"><path fill="#fff" transform="matrix(-.89385 -.44838 -.44837 .89385 59.917 49.05)" d="M0 0h22.416v22.037H0z"/></clipPath></defs></svg>

<svg width="209" height="70" viewBox="0 0 209 70" fill="none" xmlns="http://www.w3.org/2000/svg"><g clip-path="url(#clip0)" stroke="#00A99E" stroke-width="2" stroke-miterlimit="10" stroke-linecap="round" stroke-linejoin="round"><path d="M102.7 12.14v54.88M102.3 33.6c9.002 0 16.3-7.298 16.3-16.3S111.302 1 102.3 1 86 8.298 86 17.3s7.298 16.3 16.3 16.3zM133.83 41.85v25.12M133.64 53.68c5.782 0 10.47-4.688 10.47-10.47 0-5.782-4.688-10.47-10.47-10.47-5.782 0-10.47 4.688-10.47 10.47 0 5.782 4.688 10.47 10.47 10.47z"/></g><path d="M83.438 66.218V51.432M70.009 65.9v-9.136M77 66.218v-7.393M13.31 57.536v8.177M21.51 60.42v5.293" stroke="#00A79E" stroke-width="2.035" stroke-miterlimit="10" stroke-linecap="round" stroke-linejoin="round"/><g clip-path="url(#clip1)"><path opacity=".25" d="M169.303 67.774s25.166-5.409 15.331-50.864c0 0-27.518 16.354-15.331 50.864z" fill="#00A99E"/><path d="M170.248 65.778s20.297 1.79 25.303-34.397c-.009.005-25.041 5.837-25.303 34.397zM171.106 64.81c.651-.975 20.217-28.477 20.217-28.477M187.125 37.152l-.288 5.492M190.267 42.881l-5.216 2.248M186.99 47.657l-5.216 2.248M183.714 52.433l-5.221 2.239M183.553 42.054l-.297 5.496M180.437 46.592l-.297 5.497" stroke="#00A99E" stroke-width="2" stroke-miterlimit="10" stroke-linecap="round" stroke-linejoin="round"/></g><g clip-path="url(#clip2)"><path opacity=".25" d="M50.404 68.016s-13.837-2.974-8.43-27.966c0 0 15.13 8.992 8.43 27.966z" fill="#00A99E"/><path d="M49.884 66.919s-11.16.983-13.912-18.912c.005.002 13.768 3.21 13.912 18.912zM49.413 66.387c-.359-.537-11.116-15.658-11.116-15.658M40.606 51.18l.158 3.02M38.877 54.33l2.868 1.235M40.679 56.956l2.868 1.235M42.48 59.582l2.87 1.23M42.569 53.875l.163 3.022M44.281 56.37l.164 3.022" stroke="#00A99E" stroke-width="2" stroke-miterlimit="10" stroke-linecap="round" stroke-linejoin="round"/></g><path d="M2 67h205" stroke="#00A79E" stroke-width="2.035" stroke-miterlimit="10" stroke-linecap="round" stroke-linejoin="round"/><defs><clipPath id="clip0"><path fill="#fff" transform="translate(85)" d="M0 0h60.11v68.02H0z"/></clipPath><clipPath id="clip1"><path fill="#fff" transform="rotate(-26.639 146.285 -304.372)" d="M0 0h40.77v40.08H0z"/></clipPath><clipPath id="clip2"><path fill="#fff" transform="matrix(-.89385 -.44838 -.44837 .89385 59.917 49.05)" d="M0 0h22.416v22.037H0z"/></clipPath></defs></svg>
